Origami/22x22/apps/warzone2100.svg

<svg width="22" height="22" version="1" xmlns="http://www.w3.org/2000/svg">
 <rect x="2.5" y="10.5" width="17" height="6" rx="1" ry="1" style="opacity:.2"/>
 <path d="m6.1855 11 2.3145-4h5l2.5 4z" style="fill:#3f3f3f"/>
 <rect x="2.5" y="10" width="17" height="6" rx="1" ry="1" style="fill:#8e8e8e"/>
 <path d="m3.5 10c-0.554 0-1 0.446-1 1v3c0-0.554 0.446-1 1-1h15c0.554 0 1 0.446 1 1v-3c0-0.554-0.446-1-1-1z" style="fill:#ffffff;opacity:.1"/>
 <path d="m2 10c-0.554 0-1 0.446-1 1v0.5c0-0.554 0.446-1 1-1h17c0.554 0 1 0.446 1 1v-0.5c0-0.554-0.446-1-1-1z" style="fill:#ffffff;opacity:.1"/>
 <path d="m1.5 15h4c0.277 0 0.5 0.223 0.5 0.5v3.5c0 0.277-0.223 0.5-0.5 0.5h-4c-0.277 0-0.5-0.223-0.5-0.5v-3.5c0-0.277 0.223-0.5 0.5-0.5z" style="opacity:.2"/>
 <path d="m1.5 11h4c0.277 0 0.5 0.223 0.5 0.5v7c0 0.277-0.223 0.5-0.5 0.5h-4c-0.277 0-0.5-0.223-0.5-0.5v-7c0-0.277 0.223-0.5 0.5-0.5z" style="fill:#4f4f4f"/>
 <path d="m16.5 15h4c0.277 0 0.5 0.223 0.5 0.5v3.5c0 0.277-0.223 0.5-0.5 0.5h-4c-0.277 0-0.5-0.223-0.5-0.5v-3.5c0-0.277 0.223-0.5 0.5-0.5z" style="opacity:.2"/>
 <path d="m16.5 11h4c0.277 0 0.5 0.223 0.5 0.5v7c0 0.277-0.223 0.5-0.5 0.5h-4c-0.277 0-0.5-0.223-0.5-0.5v-7c0-0.277 0.223-0.5 0.5-0.5z" style="fill:#4f4f4f"/>
 <rect x="5" y="3" width="12" height="6.5" rx="1" ry="1" style="opacity:.2"/>
 <rect x="5" y="2" width="12" height="7" rx="1" ry="1" style="fill:#8e8e8e"/>
 <g transform="translate(-1,-2)" style="fill:#3f3f3f">
  <rect x="7" y="5" width="2" height="2" rx=".5" ry=".5" style="fill:#3f3f3f"/>
  <rect x="9.5" y="5" width="2" height="2" rx=".5" ry=".5" style="fill:#3f3f3f"/>
  <rect x="12.5" y="5" width="2" height="2" rx=".5" ry=".5" style="fill:#3f3f3f"/>
  <rect x="15" y="5" width="2" height="2" rx=".5" ry=".5" style="fill:#3f3f3f"/>
  <rect x="15" y="8" width="2" height="2" rx=".5" ry=".5" style="fill:#3f3f3f"/>
  <rect x="12.5" y="8" width="2" height="2" rx=".5" ry=".5" style="fill:#3f3f3f"/>
  <rect x="9.5" y="8" width="2" height="2" rx=".5" ry=".5" style="fill:#3f3f3f"/>
  <rect x="7" y="8" width="2" height="2" rx=".5" ry=".5" style="fill:#3f3f3f"/>
 </g>
 <path d="m6 2c-0.554 0-1 0.446-1 1v0.5c0-0.554 0.446-1 1-1h10c0.554 0 1 0.446 1 1v-0.5c0-0.554-0.446-1-1-1z" style="fill:#ffffff;opacity:.2"/>
 <path d="m1.5 11c-0.277 0-0.5 0.223-0.5 0.5v1.5h5v-1.5c0-0.277-0.223-0.5-0.5-0.5h-4z" style="fill:#3f3f3f"/>
 <path d="m1 15h5v2h-5z" style="fill:#3f3f3f"/>
 <path d="m16.5 19c-0.277 0-0.5-0.223-0.5-0.5v-1.5h5v1.5c0 0.277-0.223 0.5-0.5 0.5h-4z" style="fill:#3f3f3f"/>
 <path d="m16 15h5v-2h-5z" style="fill:#3f3f3f"/>
</svg>

<svg xmlns="http://www.w3.org/2000/svg" width="22" height="22" version="1">
 <rect style="opacity:0.2" width="17" height="6" x="2.5" y="10.5" rx="1" ry="1"/>
 <path style="fill:#3f3f3f" d="M 6.1855,11 8.5,7 l 5,0 2.5,4 z"/>
 <rect style="fill:#8e8e8e" width="17" height="6" x="2.5" y="10" rx="1" ry="1"/>
 <path style="opacity:0.1;fill:#ffffff" d="m 3.5,10 c -0.554,0 -1,0.446 -1,1 l 0,3 c 0,-0.554 0.446,-1 1,-1 l 15,0 c 0.554,0 1,0.446 1,1 l 0,-3 c 0,-0.554 -0.446,-1 -1,-1 z"/>
 <path style="opacity:0.1;fill:#ffffff" d="m 2,10 c -0.554,0 -1,0.446 -1,1 l 0,0.5 c 0,-0.554 0.446,-1 1,-1 l 17,0 c 0.554,0 1,0.446 1,1 L 20,11 c 0,-0.554 -0.446,-1 -1,-1 z"/>
 <path style="opacity:0.2" d="m 1.5,15 4,0 C 5.777,15 6,15.223 6,15.5 L 6,19 c 0,0.277 -0.223,0.5 -0.5,0.5 l -4,0 C 1.223,19.5 1,19.277 1,19 L 1,15.5 C 1,15.223 1.223,15 1.5,15 Z"/>
 <path style="fill:#4f4f4f" d="m 1.5,11 4,0 C 5.777,11 6,11.223 6,11.5 l 0,7 C 6,18.777 5.777,19 5.5,19 l -4,0 C 1.223,19 1,18.777 1,18.5 l 0,-7 C 1,11.223 1.223,11 1.5,11 Z"/>
 <path style="opacity:0.2" d="m 16.5,15 4,0 c 0.277,0 0.5,0.223 0.5,0.5 l 0,3.5 c 0,0.277 -0.223,0.5 -0.5,0.5 l -4,0 C 16.223,19.5 16,19.277 16,19 l 0,-3.5 C 16,15.223 16.223,15 16.5,15 Z"/>
 <path style="fill:#4f4f4f" d="m 16.5,11 4,0 c 0.277,0 0.5,0.223 0.5,0.5 l 0,7 c 0,0.277 -0.223,0.5 -0.5,0.5 l -4,0 C 16.223,19 16,18.777 16,18.5 l 0,-7 C 16,11.223 16.223,11 16.5,11 Z"/>
 <rect style="opacity:0.2" width="12" height="6.5" x="5" y="3" rx="1" ry="1"/>
 <rect style="fill:#8e8e8e" width="12" height="7" x="5" y="2" rx="1" ry="1"/>
 <g style="fill:#3f3f3f" transform="translate(-1,-2)">
  <rect width="2" height="2" x="7" y="5" rx=".5" ry=".5" style="fill:#3f3f3f"/>
  <rect width="2" height="2" x="9.5" y="5" rx=".5" ry=".5" style="fill:#3f3f3f"/>
  <rect width="2" height="2" x="12.5" y="5" rx=".5" ry=".5" style="fill:#3f3f3f"/>
  <rect width="2" height="2" x="15" y="5" rx=".5" ry=".5" style="fill:#3f3f3f"/>
  <rect width="2" height="2" x="15" y="8" rx=".5" ry=".5" style="fill:#3f3f3f"/>
  <rect width="2" height="2" x="12.5" y="8" rx=".5" ry=".5" style="fill:#3f3f3f"/>
  <rect width="2" height="2" x="9.5" y="8" rx=".5" ry=".5" style="fill:#3f3f3f"/>
  <rect width="2" height="2" x="7" y="8" rx=".5" ry=".5" style="fill:#3f3f3f"/>
 </g>
 <path style="opacity:0.2;fill:#ffffff" d="M 6,2 C 5.446,2 5,2.446 5,3 l 0,0.5 c 0,-0.554 0.446,-1 1,-1 l 10,0 c 0.554,0 1,0.446 1,1 L 17,3 C 17,2.446 16.554,2 16,2 Z"/>
 <path style="fill:#3f3f3f" d="M 1.5,11 C 1.223,11 1,11.223 1,11.5 L 1,13 6,13 6,11.5 C 6,11.223 5.777,11 5.5,11 l -4,0 z"/>
 <path d="m 1,15 5,0 0,2 -5,0 z" style="fill:#3f3f3f"/>
 <path d="M 16.5,19 C 16.223,19 16,18.777 16,18.5 l 0,-1.5 5,0 0,1.5 c 0,0.277 -0.223,0.5 -0.5,0.5 l -4,0 z" style="fill:#3f3f3f"/>
 <path style="fill:#3f3f3f" d="m 16,15 5,0 0,-2 -5,0 z"/>
</svg>
